X:89
T: Haett ich den Schluessel zum Tage
N: A0103
O: Europa, Mitteleuropa, Deutschland
N: Souterliedekens ad Ps. 47.
R: Romanze, Ballade, Lied
M: 4/2
L: 1/4
K: C
C2 | C2C2B,2A,4G,2 | C4D2E3DEC | D4
A4 | G4E2C4B,2 | A,2D4C4B,A, | G,4z2
G,2C2D2 | E2E2D2E2 | A4G4 | F2E2D2
C2 | B,2E4D4CB, | A,4G,4G4 | EFGFE2DC | D4C6

